icons/travis/travis-plain.svg

<svg xmlns="http://www.w3.org/2000/svg" viewBox="0 0 128 128"><path fill="#BB2031" d="M40 34h18v61h-8v11h28v-12h-7v-61h19v9h10v-18h-71v18h11zM122.2 3h-116.169c-2.026 0-4.031 1.226-4.031 3.225v116.154c0 2 2.005 3.621 4.031 3.621h116.169c2.026 0 2.8-1.621 2.8-3.621v-116.154c0-1.999-.774-3.225-2.8-3.225zm-16.2 45h-21v-9h-9v48h9v24h-40v-23h6v-48h-6v8h-23v-30h84v30z"/></svg>

<svg version="1.1" xmlns="http://www.w3.org/2000/svg" xmlns:xlink="http://www.w3.org/1999/xlink" viewBox="0 0 128 128">
	<polygon fill="#BB2031" points="40,34 58,34 58,95 50,95 50,106 78,106 78,94 71,94 71,33 90,33 90,42 100,42 100,24 29,24 29,42
		40,42 	"/>
	<path fill="#BB2031" d="M122.2,3H6.031C4.005,3,2,4.226,2,6.225v116.154c0,2,2.005,3.621,4.031,3.621H122.2
		c2.026,0,2.8-1.621,2.8-3.621V6.225C125,4.226,124.226,3,122.2,3z M106,48H85v-9h-9v48h9v24H45V88h6V40h-6v8H22V18h84V48z"/>
</svg>
